contributed-vectors/xnretro.svg

<?xml version="1.0" encoding="UTF-8" standalone="no"?>
<svg
   xmlns:dc="http://purl.org/dc/elements/1.1/"
   xmlns:cc="http://creativecommons.org/ns#"
   xmlns:rdf="http://www.w3.org/1999/02/22-rdf-syntax-ns#"
   xmlns:svg="http://www.w3.org/2000/svg"
   xmlns="http://www.w3.org/2000/svg"
   xmlns:sodipodi="http://sodipodi.sourceforge.net/DTD/sodipodi-0.dtd"
   xmlns:inkscape="http://www.inkscape.org/namespaces/inkscape"
   viewBox="0 0 192 192"
   version="1.1"
   id="svg16"
   sodipodi:docname="xnretro.svg"
   inkscape:version="0.92.4 (5da689c313, 2019-01-14)">
  <metadata
     id="metadata20">
    <rdf:RDF>
      <cc:Work
         rdf:about="">
        <dc:format>image/svg+xml</dc:format>
        <dc:type
           rdf:resource="http://purl.org/dc/dcmitype/StillImage" />
        <dc:title></dc:title>
      </cc:Work>
    </rdf:RDF>
  </metadata>
  <sodipodi:namedview
     pagecolor="#ffffff"
     bordercolor="#666666"
     borderopacity="1"
     objecttolerance="10"
     gridtolerance="10"
     guidetolerance="10"
     inkscape:pageopacity="0"
     inkscape:pageshadow="2"
     inkscape:window-width="1920"
     inkscape:window-height="1017"
     id="namedview18"
     showgrid="true"
     inkscape:zoom="6.9532167"
     inkscape:cx="118.05374"
     inkscape:cy="98.440681"
     inkscape:window-x="-8"
     inkscape:window-y="-8"
     inkscape:window-maximized="1"
     inkscape:current-layer="svg16">
    <inkscape:grid
       type="xygrid"
       id="grid827"
       spacingx="4"
       spacingy="4" />
  </sodipodi:namedview>
  <defs
     id="defs4">
    <style
       id="style2">.a{fill:none;stroke:#b1b5bd;stroke-linecap:round;stroke-linejoin:round;isolation:isolate;opacity:0.63;}</style>
    <style
       id="style2-8">.a{fill:none;stroke:#b1b5bd;stroke-linecap:round;stroke-linejoin:round;isolation:isolate;opacity:0.63;}</style>
    <rect
       id="camera-a"
       width="152"
       height="152"
       rx="10" />
    <style
       id="style2-0">.a{fill:none;stroke:#b1b5bd;stroke-linecap:round;stroke-linejoin:round;isolation:isolate;opacity:0.63;}</style>
    <rect
       id="camera-a-9"
       width="152"
       height="152"
       rx="10" />
  </defs>
  <rect
     class="a"
     x="20"
     y="20"
     width="152"
     height="152"
     rx="10"
     id="rect6"
     style="fill:#56595b;stroke:none;opacity:1" />
  <rect
     style="opacity:1;vector-effect:none;fill:#ffffff;fill-opacity:1;fill-rule:evenodd;stroke:none;stroke-width:8;stroke-linecap:round;stroke-linejoin:round;stroke-miterlimit:4;stroke-dasharray:none;paint-order:stroke fill markers"
     id="rect846"
     width="88"
     height="88"
     x="52"
     y="52"
     ry="44" />
  <circle
     class="a"
     cx="96"
     cy="96"
     id="circle10"
     style="opacity:1;isolation:isolate;fill:#96dfd3;stroke:none;stroke-linecap:round;stroke-linejoin:round"
     r="36" />
  <path
     style="opacity:1;vector-effect:none;fill:#f8c18c;fill-opacity:1;fill-rule:evenodd;stroke:none;stroke-width:1.08711457;paint-order:stroke fill markers"
     d="M 96 80 L 96 132 A 36 36 0 0 0 132 96 A 36 36 0 0 0 128.23242 80 L 96 80 z "
     id="rect901" />
  <path
     style="fill:#ff837d;stroke:none;stroke-width:1px;stroke-linecap:butt;stroke-linejoin:miter;stroke-opacity:1"
     d="M 60 96 A 36 36 0 0 0 93.845703 131.89258 C 111.99903 129.74774 112 96 112 96 C 112 96 110.15727 112 96 112 C 68 112 60 96 60 96 z "
     id="path869-8" />
  <rect
     style="opacity:1;vector-effect:none;fill:#ff837d;fill-opacity:1;fill-rule:evenodd;stroke:none;paint-order:stroke fill markers"
     id="rect867"
     width="12"
     height="12"
     x="152"
     y="28"
     ry="6" />
  <path
     style="fill:#98dc9a;stroke:none;stroke-width:1px;stroke-linecap:butt;stroke-linejoin:miter;stroke-opacity:1"
     d="M 98.154297 60.107422 C 80.000965 62.252261 80 96 80 96 C 80 96 81.842725 80 96 80 C 124 80 132 96 132 96 A 36 36 0 0 0 98.154297 60.107422 z "
     id="path869" />
  <rect
     style="opacity:1;vector-effect:none;fill:#56595b;fill-opacity:1;fill-rule:evenodd;stroke:none;paint-order:stroke fill markers"
     id="rect818"
     width="32"
     height="32"
     x="80"
     y="80"
     ry="16" />
</svg>

<svg xmlns="http://www.w3.org/2000/svg" id="svg16" version="1.1" viewBox="0 0 192 192"><defs id="defs4"><rect id="camera-a" width="152" height="152" rx="10"/><rect id="camera-a-9" width="152" height="152" rx="10"/><style id="style2">.a{fill:none;stroke:#b1b5bd;stroke-linecap:round;stroke-linejoin:round;isolation:isolate;opacity:.63}</style></defs><rect id="rect6" width="152" height="152" x="20" y="20" class="a" rx="10" style="fill:#56595b;stroke:none;opacity:1"/><rect id="rect846" width="88" height="88" x="52" y="52" ry="44" style="opacity:1;vector-effect:none;fill:#fff;fill-opacity:1;fill-rule:evenodd;stroke:none;stroke-width:8;stroke-linecap:round;stroke-linejoin:round;stroke-miterlimit:4;stroke-dasharray:none;paint-order:stroke fill markers"/><circle id="circle10" cx="96" cy="96" r="36" class="a" style="opacity:1;isolation:isolate;fill:#96dfd3;stroke:none;stroke-linecap:round;stroke-linejoin:round"/><path id="rect901" d="M96 80v52a36 36 0 0 0 36-36 36 36 0 0 0-3.768-16H96z" style="opacity:1;vector-effect:none;fill:#f8c18c;fill-opacity:1;fill-rule:evenodd;stroke:none;stroke-width:1.08711457;paint-order:stroke fill markers"/><path id="path869-8" d="M60 96a36 36 0 0 0 33.846 35.893C111.999 129.748 112 96 112 96s-1.843 16-16 16c-28 0-36-16-36-16z" style="fill:#ff837d;stroke:none;stroke-width:1px;stroke-linecap:butt;stroke-linejoin:miter;stroke-opacity:1"/><rect id="rect867" width="12" height="12" x="152" y="28" ry="6" style="opacity:1;vector-effect:none;fill:#ff837d;fill-opacity:1;fill-rule:evenodd;stroke:none;paint-order:stroke fill markers"/><path id="path869" d="M98.154 60.107C80.001 62.252 80 96 80 96s1.843-16 16-16c28 0 36 16 36 16a36 36 0 0 0-33.846-35.893z" style="fill:#98dc9a;stroke:none;stroke-width:1px;stroke-linecap:butt;stroke-linejoin:miter;stroke-opacity:1"/><rect id="rect818" width="32" height="32" x="80" y="80" ry="16" style="opacity:1;vector-effect:none;fill:#56595b;fill-opacity:1;fill-rule:evenodd;stroke:none;paint-order:stroke fill markers"/></svg>
